X:1
T:Song On Courtship
M:4/4
L:1/8
K:C
 D2D-E F2E-D| A2 A2F-E D2| A2A-B c2B-A| d2c-B A4| AA AB c2 A2| d2 D2E-F G2|\
 A2 dd A2 G2| F2 E2 D4|
